actions/16/document-save.svg

<svg xmlns="http://www.w3.org/2000/svg" viewBox="0 0 16 16">
  <defs id="defs3051">
<style type="text/css" id="current-color-scheme">.ColorScheme-Text {color:#fcfcfc;}</style>
  </defs>
 <path style="fill:currentColor;fill-opacity:1;stroke:none" 
     d="m 2,4 c 0,2 0,6 0,8 0,2 2,2 2,2 h 6 1 1 c 0,0 2,0 2,-2 0,-2 0,-7.71875 0,-7.71875 L 11.71875,2 H 11.6875 11 4 C 4,2 2,2 2,4 Z M 3,4 C 3,3 4,3 4,3 h 1 v 3 1 h 6 V 6 3 h 0.28125 L 13,4.71875 V 5 c 0,0 0,6 0,7 0,1 -1,1 -1,1 V 9 H 11 5 3.96875 v 4 C 3.96875,13 3,13 3,12 3,11 3,5 3,4 Z M 6,3 H 7.90625 V 6 H 6 Z m -1,7 h 1 4 1 v 3 H 10 6 5 Z"
     class="ColorScheme-Text"
     />
</svg>

<svg xmlns="http://www.w3.org/2000/svg" viewBox="0 0 16 16">
  <defs id="defs3051">
    <style type="text/css" id="current-color-scheme">
      .ColorScheme-Text {
        color:#eff0f1;
      }
      </style>
  </defs>
 <path style="fill:currentColor;fill-opacity:1;stroke:none" 
     d="M 2 2 L 2 14 L 3 14 L 4 14 L 10 14 L 11 14 L 12 14 L 14 14 L 14 4.28125 L 11.71875 2 L 11.6875 2 L 11 2 L 4 2 L 3 2 L 2 2 z M 3 3 L 4 3 L 5 3 L 5 6 L 5 7 L 11 7 L 11 6 L 11 3 L 11.28125 3 L 13 4.71875 L 13 5 L 13 13 L 12 13 L 12 9 L 11 9 L 5 9 L 3.96875 9 L 3.96875 13 L 3 13 L 3 3 z M 6 3 L 7.90625 3 L 7.90625 6 L 6 6 L 6 3 z M 5 10 L 6 10 L 10 10 L 11 10 L 11 13 L 10 13 L 6 13 L 5 13 L 5 10 z "
     class="ColorScheme-Text"
     />
</svg>
